X: 1396
T: Mâhitâb Olsun Cihan
C: Ahmet Avni Konuk
O: Turkey
F: http://compmusic.upf.edu/node/140
N: hisar--kupe--duyek--mahitab--ahmet_avni_konuk
N: makam= hisar
N: form= kupe
N: usul= duyek = 8/4
M: 8/4
L: 1/16
K: C _1/4B   
Q: 1/4=57
%%MIDI tuningsystem comma53
z4 ^d8 ^1/4f4 e8 f3e d2e2  | ^d4 d2^1/4f2 e3d c4 c4 {d}c2d2 c4 {d}c2_2/4B2  | \
w:  Mâ hi tâb_ ol  |  *  sun  *  *  *  ci hân  *  *  *  zevk   | 
A4 ^d8 ^1/4f4 e8 f3e d2e2  | 
w:  *  ey le sun  üf  | 
^d4 _2/4b4 a4 ^g4 g2^1/4f2 f2e2 e2d2 e4  | \
w:  *  tâ *  de ler    | 
z4 e8 _2/4b4 b2a2 a2c'2 b2a2 ^g2f2  | 
w:  Nâz  i le  *  *  *  ey   | 
e4 e8 f4 d4 e4 d4 d2_2/4B2  | A4 A2_2/4B2 A4 B4 c4 ^d4 e4 c4  | \
w:  *  meh  bu yur  *  semt_  |  *  i  *  *  Hi sâ *  rı   | 
^d4 c4 c2_2/4B2 A4 A2c2 B2A2 A4 z4  | 
w:  *  kıl  *  *  ma kar    | 
|


